X: 102
T:Paddy O'Carrel. JMT.098
M:6/8
L:1/8
S:J.Moore,Tyneside,1842.(69a)
R:Jig
O:England
A:Northumbria
Z:C,G.P
K:D
"G in MS"A/G/|FDD FDD|FGF FED|AFF dFF|EFED2A/G/|FDD FDD|!
FGF FED|AFF dFF|EFED2:||:a/g/|fdd ecc|BdB AGF|!
fda eca|dBf a2a/g/|fdd ecc|BdB AGF|AFF dFF|EFED2:|]
